assets/Clapping hands/Dark/Flat/clapping_hands_flat_dark.svg

<svg width="32" height="32" viewBox="0 0 32 32" fill="none" xmlns="http://www.w3.org/2000/svg">
<path d="M24.2623 22.4476L24.1076 13.0575C24.0086 12.1665 23.5197 10.9692 21.849 10.9692C19.8998 11.062 19.8225 13.0575 19.8225 13.0575L16.8523 7.75151C16.1098 6.62222 14.892 6.54363 14.1297 7.00895C13.3674 7.47428 13.2015 8.41669 13.2015 8.41669L12.5827 7.61227C12.1174 6.84993 10.7249 6.76115 10.0148 7.1946C8.83616 7.91403 8.66488 9.4036 9.42696 10.2266C9.37697 10.1726 8.79455 9.97095 7.81812 10.567C7.05578 11.0323 6.8203 12.4234 7.24572 13.2123C7.67115 14.0011 7.73302 14.1249 7.73302 14.1249C7.73302 14.1249 7.07557 13.8155 6.03911 14.5116C5.29768 15.0096 5.03234 16.4875 5.49767 17.2498L7.99384 21.4585L11.4293 27.0721C13.449 29.9348 17.7553 30.9233 20.8843 29.0225C23.0178 27.7264 24.4655 24.9876 24.2623 22.4476Z" fill="#422426"/>
<path d="M13.2933 8.56373L13.2016 8.41619C13.2047 8.39878 13.3107 7.82484 13.7204 7.35645L14.1426 8.03581C14.477 8.5738 14.93 9.30216 15.4045 10.0637C16.3551 11.5893 17.3872 13.2407 17.728 13.7674C17.8781 13.9992 17.8117 14.3088 17.5799 14.4588C17.348 14.6088 17.0385 14.5425 16.8885 14.3107C16.5418 13.7748 15.5036 12.1138 14.5558 10.5925C14.081 9.83059 13.6278 9.10191 13.2933 8.56373Z" fill="#341A1C"/>
<path d="M9.37754 10.1987C9.29741 10.1769 9.222 10.1624 9.15165 10.1532C9.25541 10.1607 9.33135 10.1803 9.37754 10.1987Z" fill="#341A1C"/>
<path d="M9.40998 10.2079C9.6899 10.2897 10.0252 10.4604 10.4022 10.7955C10.4308 10.821 10.4977 10.8967 10.6047 11.0471C10.7055 11.1888 10.8242 11.3714 10.9571 11.5867C11.2226 12.0169 11.5319 12.5572 11.8479 13.1211C12.0139 13.4173 12.1827 13.7217 12.3477 14.0193C12.8011 14.8371 13.226 15.6035 13.4865 16.006C13.6365 16.2378 13.946 16.3041 14.1779 16.1541C14.4097 16.0041 14.476 15.6946 14.326 15.4627C14.0855 15.0911 13.6894 14.3766 13.2447 13.5745C13.075 13.2685 12.8982 12.9496 12.7202 12.6321C12.4031 12.0663 12.0853 11.5106 11.8081 11.0615C11.6696 10.8371 11.5381 10.6342 11.4196 10.4675C11.3072 10.3096 11.1857 10.154 11.0666 10.0481C10.2708 9.34077 9.53737 9.14476 8.96988 9.1402C8.99729 9.5358 9.14509 9.91296 9.40998 10.2079Z" fill="#341A1C"/>
<path d="M7.6902 14.1085C7.57811 14.084 7.47176 14.0674 7.37596 14.0571C7.5281 14.0624 7.63512 14.0902 7.6902 14.1085Z" fill="#341A1C"/>
<path d="M7.72924 14.1173C7.76063 14.1246 7.79242 14.1325 7.8245 14.141C8.15012 14.2277 8.45017 14.3659 8.6522 14.5455C8.75352 14.6355 8.90685 14.821 9.10438 15.101C9.29552 15.372 9.50735 15.7013 9.72646 16.0543C9.90352 16.3396 10.0882 16.6453 10.2684 16.9435C10.5233 17.3653 10.769 17.7721 10.9708 18.084C11.1209 18.3159 11.4304 18.3822 11.6623 18.2322C11.8941 18.0822 11.9604 17.7726 11.8104 17.5408C11.613 17.2357 11.3849 16.8579 11.14 16.4522C10.9594 16.1531 10.7695 15.8386 10.5761 15.5269C10.3534 15.1682 10.1295 14.8194 9.92153 14.5246C9.71992 14.2388 9.51068 13.9706 9.31656 13.7981C8.95609 13.4777 8.49312 13.2842 8.08176 13.1747C7.76108 13.0893 7.43772 13.046 7.16837 13.0441C7.19115 13.1025 7.21693 13.1587 7.24573 13.2121C7.61589 13.8985 7.71082 14.0814 7.72924 14.1173Z" fill="#341A1C"/>
<path d="M29.9531 22.3716V12.8872C29.8531 11.9872 29.2031 10.7779 27.5156 10.7779C25.5469 10.8716 25.4688 12.8872 25.4688 12.8872L22.4688 7.5279C21.7188 6.38726 20.4888 6.30788 19.7188 6.77788C18.9488 7.24788 18.7813 8.19976 18.7813 8.19976L18.1563 7.38726C17.6863 6.61726 16.2798 6.52758 15.5625 6.96538C14.372 7.69204 14.199 9.19658 14.9688 10.0279C14.9183 9.97335 14.33 9.76964 13.3438 10.3716C12.5738 10.8416 12.3359 12.2467 12.7656 13.0435C13.1953 13.8403 13.2578 13.9653 13.2578 13.9653C13.2578 13.9653 12.5938 13.6528 11.5469 14.356C10.798 14.8589 10.53 16.3516 11 17.1216L13.5212 21.3726L16.9912 27.0426C19.0313 29.9341 23.3808 30.9325 26.5412 29.0126C28.6962 27.7035 30.1584 24.9372 29.9531 22.3716Z" fill="#573739"/>
<path d="M18.7845 8.18341L18.7975 8.20442C19.132 8.7426 19.5853 9.47128 20.06 10.2332C21.0079 11.7545 22.046 13.4155 22.3927 13.9513C22.5427 14.1832 22.8523 14.2495 23.0841 14.0995C23.316 13.9495 23.3823 13.6399 23.2323 13.4081C22.8915 12.8814 21.8593 11.23 20.9087 9.70437C20.4342 8.94285 19.9812 8.21449 19.6468 7.6765L19.3061 7.12817C18.9265 7.56165 18.8047 8.08498 18.7845 8.18341Z" fill="#341A1C"/>
<path d="M14.8888 9.98913C14.7337 9.95982 14.5983 9.95133 14.4915 9.95465C14.6757 9.94113 14.8097 9.96382 14.8888 9.98913Z" fill="#341A1C"/>
<path d="M16.1756 10.6461C15.7399 10.2588 15.2965 10.076 14.9437 10.0002C14.6863 9.70952 14.5404 9.34121 14.5089 8.95418C15.1067 8.94791 16.0053 9.1567 16.84 9.89868C17.0457 10.0815 17.3066 10.4478 17.5649 10.8398C17.8372 11.2529 18.1484 11.7607 18.4591 12.2793C18.6909 12.6664 18.9211 13.057 19.1363 13.4222C19.5059 14.0494 19.8313 14.6015 20.0448 14.9315C20.1948 15.1633 20.1285 15.4729 19.8966 15.6229C19.6648 15.7729 19.3552 15.7066 19.2052 15.4747C18.9811 15.1283 18.6354 14.5419 18.2557 13.8977C18.0431 13.537 17.8198 13.1581 17.6012 12.7932C17.2924 12.2776 16.9901 11.7848 16.73 11.3902C16.4559 10.9744 16.2653 10.7258 16.1756 10.6461Z" fill="#341A1C"/>
<path d="M13.3743 13.9863C13.3289 13.9678 13.285 13.951 13.2426 13.9358C13.2063 13.8659 13.0916 13.648 12.7656 13.0435C12.7261 12.9701 12.6921 12.8916 12.6638 12.8091C12.997 12.8047 13.3973 12.9162 13.7508 13.0598C14.1568 13.2248 14.5914 13.4692 14.9259 13.7665C15.1284 13.9465 15.341 14.2389 15.5407 14.5441C15.7486 14.8618 15.9724 15.2405 16.1944 15.6277C16.3292 15.8628 16.4627 16.0997 16.5926 16.33C16.899 16.8737 17.1851 17.3813 17.4198 17.744C17.5698 17.9758 17.5035 18.2854 17.2716 18.4354C17.0398 18.5854 16.7302 18.5191 16.5802 18.2872C16.328 17.8974 16.0166 17.3451 15.7025 16.7878C15.5766 16.5643 15.4501 16.34 15.3269 16.1252C15.1072 15.742 14.8952 15.384 14.704 15.0917C14.5046 14.7871 14.3546 14.5966 14.2616 14.5139C14.0336 14.3113 13.7052 14.1207 13.3743 13.9863Z" fill="#341A1C"/>
<path d="M26.4034 14.5399C26.2311 14.2429 25.8841 13.6235 25.4693 12.8776C25.4743 12.7921 25.5242 12.1592 25.9093 11.6098C26.5066 12.6875 27.0432 13.6499 27.2685 14.0382C27.407 14.2771 27.3257 14.5831 27.0868 14.7216C26.8479 14.8601 26.542 14.7788 26.4034 14.5399Z" fill="#341A1C"/>
<path d="M8.05185 4.81707L6.83185 3.16552C6.64185 2.90746 6.76185 2.53585 7.06185 2.44295L8.42185 2.01974C8.72185 1.92684 9.02185 2.17457 9.00185 2.49456L8.86185 4.56935C8.82185 4.99256 8.30185 5.15771 8.05185 4.81707Z" fill="#46A4FB"/>
<path d="M5.69185 6.4391L3.83185 5.6591C3.54185 5.5391 3.46185 5.1691 3.68185 4.9391L4.65185 3.9091C4.86185 3.6791 5.24185 3.7391 5.38185 4.0191L6.27185 5.8291C6.44185 6.1991 6.07185 6.5991 5.69185 6.4391Z" fill="#46A4FB"/>
<path d="M2.51979 9.35898L4.59127 9.08919C5.01593 9.03731 5.15058 8.48734 4.79842 8.2383L3.06873 7.07613C2.79944 6.89973 2.42657 7.04499 2.35407 7.35629L2.01227 8.78826C1.93977 9.10994 2.19871 9.40048 2.51979 9.35898Z" fill="#46A4FB"/>
</svg>

<svg xmlns="http://www.w3.org/2000/svg" width="32" height="32" fill="none"><path fill="#422426" d="m24.262 22.448-.154-9.39c-.1-.892-.588-2.089-2.259-2.089-1.95.093-2.026 2.088-2.026 2.088l-2.97-5.305c-.743-1.13-1.961-1.208-2.723-.743-.763.465-.929 1.408-.929 1.408l-.618-.805c-.466-.762-1.858-.85-2.568-.417-1.179.719-1.35 2.209-.588 3.032-.05-.054-.632-.256-1.609.34-.762.465-.998 1.856-.572 2.645.425.79.487.913.487.913s-.657-.31-1.694.387c-.741.498-1.007 1.976-.541 2.738l2.496 4.209 3.435 5.613c2.02 2.863 6.326 3.851 9.455 1.95 2.134-1.296 3.581-4.034 3.378-6.574Z"/><path fill="#341A1C" d="m13.293 8.564-.091-.148c.003-.017.109-.591.518-1.06l.423.68 1.261 2.028a428.29 428.29 0 0 0 2.324 3.703.5.5 0 1 1-.84.544 425.774 425.774 0 0 1-2.332-3.719l-1.263-2.028ZM9.378 10.199a1.698 1.698 0 0 0-.226-.046c.103.008.18.027.226.046Z"/><path fill="#341A1C" d="M9.41 10.208c.28.082.615.252.992.588.029.025.096.1.203.251.1.142.22.324.352.54.266.43.575.97.89 1.534.167.296.336.6.5.898.454.818.879 1.585 1.14 1.987a.5.5 0 0 0 .839-.543c-.24-.372-.637-1.086-1.081-1.888l-.525-.943a45.512 45.512 0 0 0-.912-1.57 11.27 11.27 0 0 0-.388-.595 2.595 2.595 0 0 0-.353-.419c-.796-.707-1.53-.903-2.097-.908.027.396.175.773.44 1.068ZM7.69 14.108a2.965 2.965 0 0 0-.314-.05c.152.004.26.032.314.05ZM7.73 14.117l.094.024c.326.087.626.225.828.405.102.09.255.275.452.555.192.271.403.6.622.953.178.286.362.591.542.89.255.421.501.828.703 1.14a.5.5 0 0 0 .84-.543 44.087 44.087 0 0 1-.671-1.089c-.18-.299-.37-.613-.564-.925a21.103 21.103 0 0 0-.654-1.002c-.202-.286-.411-.554-.605-.727-.36-.32-.824-.514-1.235-.623a3.768 3.768 0 0 0-.914-.13c.023.057.049.114.078.167.37.687.465.87.483.905Z"/><path fill="#573739" d="M29.953 22.372v-9.485c-.1-.9-.75-2.11-2.437-2.11-1.97.095-2.047 2.11-2.047 2.11l-3-5.36c-.75-1.14-1.98-1.22-2.75-.75S18.78 8.2 18.78 8.2l-.625-.813c-.47-.77-1.876-.86-2.593-.422-1.191.727-1.364 2.232-.594 3.063-.05-.055-.639-.258-1.625.344-.77.47-1.008 1.875-.578 2.671.43.797.492.922.492.922s-.664-.312-1.711.391c-.749.503-1.017 1.996-.547 2.766l2.521 4.25 3.47 5.67c2.04 2.892 6.39 3.89 9.55 1.97 2.155-1.309 3.617-4.075 3.412-6.64Z"/><path fill="#341A1C" d="m18.785 8.183.012.021 1.263 2.03a426.27 426.27 0 0 0 2.333 3.717.5.5 0 1 0 .84-.543c-.341-.527-1.374-2.178-2.324-3.704-.475-.761-.928-1.49-1.262-2.028l-.34-.548a2.47 2.47 0 0 0-.522 1.055ZM14.889 9.99a1.86 1.86 0 0 0-.397-.035c.184-.014.318.009.397.034ZM16.176 10.646A2.725 2.725 0 0 0 14.944 10a1.788 1.788 0 0 1-.435-1.046c.598-.006 1.496.203 2.331.945.206.183.467.549.725.94.272.414.583.922.894 1.44.232.387.462.778.677 1.143.37.627.695 1.18.909 1.51a.5.5 0 1 1-.84.543c-.224-.347-.57-.933-.95-1.577-.212-.361-.435-.74-.654-1.105a40.348 40.348 0 0 0-.871-1.403c-.274-.416-.465-.664-.554-.744ZM13.374 13.986a3.303 3.303 0 0 0-.131-.05 78.72 78.72 0 0 0-.477-.893 1.569 1.569 0 0 1-.102-.234c.333-.004.733.107 1.087.25a4.2 4.2 0 0 1 1.175.708c.202.18.415.472.615.777.208.318.431.697.653 1.084.135.235.269.472.399.702.306.544.592 1.051.827 1.414a.5.5 0 1 1-.84.543c-.252-.39-.563-.942-.877-1.5a99.595 99.595 0 0 0-.376-.662c-.22-.383-.432-.741-.623-1.033-.2-.305-.35-.495-.442-.578a3.21 3.21 0 0 0-.888-.528ZM26.403 14.54c-.172-.297-.519-.916-.934-1.662a2.66 2.66 0 0 1 .44-1.268c.598 1.078 1.134 2.04 1.36 2.428a.5.5 0 0 1-.866.502Z"/><path fill="#46A4FB" d="m8.052 4.817-1.22-1.651a.468.468 0 0 1 .23-.723l1.36-.423c.3-.093.6.155.58.475l-.14 2.074c-.04.424-.56.589-.81.248ZM5.692 6.44l-1.86-.78a.443.443 0 0 1-.15-.72l.97-1.03a.45.45 0 0 1 .73.11l.89 1.81c.17.37-.2.77-.58.61ZM2.52 9.359l2.071-.27c.425-.052.56-.602.207-.85l-1.73-1.163a.472.472 0 0 0-.714.28l-.342 1.432a.463.463 0 0 0 .508.571Z"/></svg>
